X:19
T:God Save the King. ET.19
M:3/4
L:1/4
Q:1/4=120
S:Eliza Tennyson MS, Lincolnshire,1822
R:air
N:As written in MS
O:England;Lincolnshire;Somersby
Z:vmp.R.Greig 2011 <http://www.village-music-project.org.uk>
K:D
[V:1]dde|c>de|ffg|f>ed|edc|d3:|
[V:2]A,,A,,B,,|G,,>A,,B,,|F,F,G,|F,>C,D,|B,,A,,G,,”bar line added”|A,,3:|
[V:1]|:aaa|a>gf|ggg|g>fe|f (g/f/)(e/d/)|f>ga|(3b/a/g/f”tr”e|d3:|
[V:2]|:A,A,A,|A,/C,/A,/G,/F,|G,G,G,|G,/C,/G,/F,/E,|F,(G,/F,/)(C,/A,,/)|F,/C,/F,/G,/A,|(3B,/A,/G,/F,C,|A,,3:|

